packages/ui-icons/svg/Line/record.svg

<svg viewBox="0 0 1920 1920" xmlns="http://www.w3.org/2000/svg">
    <path d="M960 0c529.36 0 960 430.645 960 960 0 529.36-430.64 960-960 960-529.355 0-960-430.64-960-960C0 430.645 430.645 0 960 0Zm0 112.941c-467.125 0-847.059 379.934-847.059 847.059 0 467.12 379.934 847.06 847.059 847.06 467.12 0 847.06-379.94 847.06-847.06 0-467.125-379.94-847.059-847.06-847.059ZM960 320c353.46 0 640 286.538 640 640 0 353.46-286.54 640-640 640-353.462 0-640-286.54-640-640 0-353.462 286.538-640 640-640Zm0 106.667c-294.552 0-533.333 238.781-533.333 533.333 0 294.55 238.781 533.33 533.333 533.33 294.55 0 533.33-238.78 533.33-533.33 0-294.552-238.78-533.333-533.33-533.333Z" fill-rule="evenodd"/>
</svg>

<svg viewBox="0 0 1920 1920" version="1.1" xmlns="http://www.w3.org/2000/svg">
    <path d="M960,0 C1489.36,0 1920,430.645 1920,960 C1920,1489.36 1489.36,1920 960,1920 C430.645,1920 0,1489.36 0,960 C0,430.645 430.645,0 960,0 Z M960,112.941 C492.875,112.941 112.941,492.875 112.941,960 C112.941,1427.12 492.875,1807.06 960,1807.06 C1427.12,1807.06 1807.06,1427.12 1807.06,960 C1807.06,492.875 1427.12,112.941 960,112.941 Z M960,320 C1313.46,320 1600,606.538 1600,960 C1600,1313.46 1313.46,1600 960,1600 C606.538,1600 320,1313.46 320,960 C320,606.538 606.538,320 960,320 Z M960,426.667 C665.448,426.667 426.667,665.448 426.667,960 C426.667,1254.55 665.448,1493.33 960,1493.33 C1254.55,1493.33 1493.33,1254.55 1493.33,960 C1493.33,665.448 1254.55,426.667 960,426.667 Z" stroke="none" stroke-width="1" fill-rule="evenodd"/>
</svg>
